img/hero/rent.svg

<svg width="57" height="57" viewBox="0 0 57 57" fill="none" xmlns="http://www.w3.org/2000/svg">
<path d="M46.4845 42.3893L44.2097 38.9494V21.757L45.9983 19.0775C46.2209 18.7441 46.131 18.2934 45.7976 18.0709L42.6855 15.9935V10.2486C42.6855 9.84782 42.3606 9.5228 41.9597 9.5228H38.7419C38.341 9.5228 38.0161 9.84782 38.0161 10.2486V12.8765L28.4269 6.47543C28.1829 6.31256 27.8649 6.3127 27.6209 6.47543L22.1842 10.1046C21.8507 10.3272 21.7609 10.7778 21.9834 11.1113C22.206 11.4447 22.6568 11.5346 22.99 11.312L28.0239 7.95183L44.388 18.8753L43.2596 20.5657L28.4269 10.6643C28.183 10.5014 27.8649 10.5014 27.6209 10.6643L12.7882 20.5657L11.6599 18.8753L17.557 14.9389C17.8904 14.7163 17.9803 14.2657 17.7577 13.9322C17.5352 13.5989 17.0845 13.509 16.7511 13.7315L10.2503 18.0709C9.91691 18.2934 9.82705 18.7441 10.0496 19.0775L11.8381 21.757V42.0638H10.1687C9.76782 42.0638 9.44287 42.3888 9.44287 42.7896C9.44287 43.1904 9.76782 43.5154 10.1687 43.5154H45.8791C46.1463 43.5154 46.3919 43.3687 46.5184 43.1333C46.645 42.8979 46.632 42.6122 46.4845 42.3893ZM39.4677 10.9744H41.2339V15.0245L39.4677 13.8456V10.9744ZM35.6146 25.9524L36.4453 24.6962C36.6665 24.3619 36.5747 23.9115 36.2403 23.6905C35.9061 23.4693 35.4557 23.5611 35.2345 23.8955L34.7444 24.6365L34.2544 23.8955C34.0334 23.5611 33.5831 23.4693 33.2487 23.6905C32.9144 23.9116 32.8225 24.3619 33.0436 24.6962L33.8743 25.9524L33.4675 26.5676C27.6538 31.5736 18.8829 31.3865 13.2897 26.0074V22.5041C13.9813 22.6819 14.6799 22.8292 15.3832 22.9462C15.2059 23.2612 15.1043 23.6242 15.1043 24.0106C15.1043 25.2113 16.0811 26.1881 17.2817 26.1881C18.4824 26.1881 19.4592 25.2113 19.4592 24.0106C19.4592 23.7551 19.4146 23.51 19.3334 23.2821C19.3768 23.2823 19.4202 23.2832 19.4636 23.2832C20.1374 23.2832 20.8116 23.2556 21.4843 23.201C21.4507 23.3529 21.4324 23.5105 21.4324 23.6725C21.4324 24.8731 22.4092 25.8499 23.6098 25.8499C24.8105 25.8499 25.7873 24.8731 25.7873 23.6725C25.7873 23.261 25.6725 22.8759 25.4734 22.5473C26.2144 22.363 26.9454 22.1454 27.6638 21.8947C27.6719 23.0885 28.6452 24.0572 29.8409 24.0572C31.0415 24.0572 32.0183 23.0804 32.0183 21.8797C32.0183 21.2483 31.748 20.679 31.3172 20.2809C31.8871 19.9725 32.4449 19.6421 32.9889 19.29C33.2265 20.235 34.083 20.9368 35.1007 20.9368C36.3013 20.9368 37.2781 19.96 37.2781 18.7593C37.2781 18.5955 37.2593 18.4361 37.2249 18.2826L42.7581 21.9762V36.7543L35.6146 25.9524ZM38.9306 40.3763L36.0946 36.0879H38.9306V40.3763ZM35.4703 34.6362V28.3658L39.617 34.6362H35.4703ZM24.9999 32.372C24.9999 32.7722 24.6743 33.0978 24.2741 33.0978C23.8739 33.0978 23.5483 32.7722 23.5483 32.372C23.5483 31.9717 23.8739 31.6461 24.2741 31.6461C24.6743 31.6461 24.9999 31.9717 24.9999 32.372ZM18.7617 31.4341C18.7617 31.8343 18.4361 32.1599 18.0359 32.1599C17.6357 32.1599 17.3101 31.8343 17.3101 31.4341C17.3101 31.0338 17.6357 30.7082 18.0359 30.7082C18.4361 30.7082 18.7617 31.0338 18.7617 31.4341ZM18.0076 24.0106C18.0076 24.4109 17.682 24.7365 17.2817 24.7365C16.8815 24.7365 16.5559 24.4109 16.5559 24.0106C16.5559 23.6104 16.8815 23.2848 17.2817 23.2848C17.682 23.2848 18.0076 23.6105 18.0076 24.0106ZM24.3357 23.6725C24.3357 24.0727 24.01 24.3983 23.6098 24.3983C23.2096 24.3983 22.884 24.0727 22.884 23.6725C22.884 23.2723 23.2096 22.9467 23.6098 22.9467C24.01 22.9467 24.3357 23.2723 24.3357 23.6725ZM30.5667 21.8798C30.5667 22.28 30.2411 22.6056 29.8409 22.6056C29.4406 22.6056 29.115 22.28 29.115 21.8798C29.115 21.4796 29.4406 21.1539 29.8409 21.1539C30.2411 21.1539 30.5667 21.4796 30.5667 21.8798ZM35.1007 18.0336C35.5009 18.0336 35.8265 18.3592 35.8265 18.7595C35.8265 19.1597 35.5009 19.4853 35.1007 19.4853C34.7005 19.4853 34.3749 19.1597 34.3749 18.7595C34.3749 18.3592 34.7005 18.0336 35.1007 18.0336ZM28.0239 12.1407L34.4397 16.4234C28.8841 21.0459 21.3898 22.841 14.3529 21.2665L28.0239 12.1407ZM13.2897 27.9478C14.2639 28.7447 15.3164 29.4199 16.4281 29.9672C16.0744 30.3545 15.8584 30.8694 15.8584 31.434C15.8584 32.6346 16.8352 33.6115 18.0359 33.6115C19.2365 33.6115 20.2133 32.6346 20.2133 31.434C20.2133 31.3817 20.2108 31.33 20.2072 31.2787C20.8757 31.4218 21.556 31.5236 22.2451 31.583C22.1496 31.8278 22.0966 32.0937 22.0966 32.3718C22.0966 33.5725 23.0734 34.5493 24.2741 34.5493C25.4748 34.5493 26.4516 33.5725 26.4516 32.3718C26.4516 32.0418 26.3774 31.7289 26.2454 31.4483C28.0425 31.1693 29.7661 30.5973 31.3593 29.7554L23.2197 42.0638H13.2897V27.9478ZM34.0186 28.3658V35.1438L29.4424 42.0638H24.96L34.0186 28.3658ZM31.1828 42.0638L34.7445 36.6779L38.3063 42.0638H31.1828ZM40.3823 42.0638V35.7933L44.529 42.0638H40.3823Z" fill="white"/>
<path d="M19.8711 13.2471C20.062 13.2471 20.2485 13.1702 20.3842 13.0352C20.5192 12.8995 20.5969 12.713 20.5969 12.5213C20.5969 12.3304 20.5192 12.144 20.3842 12.0082C20.2485 11.8732 20.062 11.7955 19.8711 11.7955C19.6795 11.7955 19.4929 11.8731 19.3579 12.0082C19.2222 12.144 19.1453 12.3304 19.1453 12.5213C19.1453 12.713 19.2222 12.8995 19.3579 13.0352C19.4929 13.1703 19.6795 13.2471 19.8711 13.2471Z" fill="white"/>
<circle cx="28.1762" cy="28.4374" r="27.6762" stroke="white"/>
</svg>

<svg width="57" height="57" viewBox="0 0 57 57" fill="none" xmlns="http://www.w3.org/2000/svg"><path d="M46.484 42.39l-2.274-3.44V21.756l1.788-2.68a.726.726 0 00-.2-1.006l-3.113-2.078V10.25a.725.725 0 00-.725-.726h-3.218a.726.726 0 00-.726.726v2.627l-9.59-6.4a.726.726 0 00-.805 0l-5.437 3.629a.726.726 0 00.806 1.207l5.034-3.36 16.364 10.923-1.128 1.69-14.833-9.9a.726.726 0 00-.806 0l-14.833 9.9-1.128-1.69 5.897-3.936a.726.726 0 00-.806-1.207l-6.5 4.339a.726.726 0 00-.201 1.006l1.788 2.68v20.307h-1.67a.726.726 0 000 1.451H45.88a.726.726 0 00.605-1.126zm-7.016-31.416h1.766v4.05l-1.766-1.178v-2.872zm-3.853 14.978l.83-1.256a.726.726 0 10-1.21-.8l-.49.74-.49-.74a.726.726 0 10-1.211.8l.83 1.256-.407.616c-5.813 5.006-14.584 4.819-20.177-.56v-3.504c.691.178 1.39.325 2.093.442a2.18 2.18 0 001.899 3.242 2.18 2.18 0 002.051-2.906l.13.001c.674 0 1.349-.027 2.021-.082a2.18 2.18 0 002.125 2.649 2.18 2.18 0 001.864-3.303 24.857 24.857 0 002.19-.652 2.18 2.18 0 002.178 2.162 2.18 2.18 0 002.177-2.177c0-.632-.27-1.201-.7-1.6a24.79 24.79 0 001.67-.99 2.181 2.181 0 002.113 1.647 2.18 2.18 0 002.124-2.654l5.533 3.693v14.778l-7.143-10.802zm3.316 14.424l-2.836-4.288h2.836v4.288zm-3.46-5.74v-6.27l4.146 6.27H35.47zM25 32.372a.727.727 0 11-1.453-.002.727.727 0 011.453.002zm-6.238-.938a.727.727 0 11-1.454-.002.727.727 0 011.454.002zm-.754-7.423a.727.727 0 11-1.454-.002.727.727 0 011.454.002zm6.328-.338a.727.727 0 11-1.454-.002.727.727 0 011.454.002zm6.23-1.793a.727.727 0 11-1.453-.002.727.727 0 011.454.002zm4.535-3.846a.727.727 0 11-.002 1.453.727.727 0 01.002-1.453zm-7.077-5.893l6.416 4.282c-5.556 4.623-13.05 6.418-20.087 4.844l13.67-9.126zM13.29 27.948a16.382 16.382 0 003.138 2.02c-.354.387-.57.901-.57 1.466 0 1.2.977 2.177 2.178 2.177a2.18 2.18 0 002.171-2.332c.669.143 1.349.245 2.038.304a2.18 2.18 0 002.029 2.966 2.18 2.18 0 001.971-3.1 16.275 16.275 0 005.114-1.694l-8.14 12.309h-9.93V27.948zm20.729.418v6.778l-4.577 6.92H24.96l9.059-13.698zm-2.836 13.698l3.562-5.386 3.561 5.386h-7.123zm9.2 0v-6.27l4.146 6.27h-4.147z" fill="#fff"/><path d="M19.871 13.247a.73.73 0 00.513-.212.733.733 0 00.213-.514.733.733 0 00-.213-.513.732.732 0 00-.513-.212.73.73 0 00-.726.725.73.73 0 00.213.514.729.729 0 00.513.212z" fill="#fff"/><circle cx="28.176" cy="28.437" r="27.676" stroke="#fff"/></svg>
